X:16
T: Kilfenora Jig "1"
R: Jig
I:abc2nwc
M:6/8
L:1/8
K:D
A2D FED|A2D FED|A2D FED|dce dcB|A2D FED|A2D FED|EDE =cAF|~G3 GFG:|
|:F2d dcd|~A3 BAG|F2d dcd|AdA A2G|FAd dcd|
AdB AFD|EDE =cAF|[1~G3 GAG:|[2~G3 d2e||
|:f2d dcd|f2d dcd|f2d dcd|a^ga ba=g|f2d dcd|f2d dcd|ged cde|~g3 a2g:|
|:fed faf|gbg faf|fed faf|a3bag|fed faf|gbg faf|ged cde|~g3 a2g:|
|:fed edc|dcd AFA|DFA dAF|~A3 AB=c|
~B3 ~=c3|~B3 AFD|EDE =cAF|[1~G3 a2g:|[2~G3 GFG||
